assets/icons/coursetiming-perk.svg

<?xml version="1.0" encoding="utf-8"?><!-- Uploaded to: SVG Repo, www.svgrepo.com, Generator: SVG Repo Mixer Tools -->
<svg width="800px" height="800px" viewBox="0 0 24 24" fill="none" xmlns="http://www.w3.org/2000/svg">
<path d="M23 12C23 12.3545 22.9832 12.7051 22.9504 13.051C22.3838 12.4841 21.7204 12.014 20.9871 11.6675C20.8122 6.85477 16.8555 3.00683 12 3.00683C7.03321 3.00683 3.00683 7.03321 3.00683 12C3.00683 16.8555 6.85477 20.8122 11.6675 20.9871C12.014 21.7204 12.4841 22.3838 13.051 22.9504C12.7051 22.9832 12.3545 23 12 23C5.92487 23 1 18.0751 1 12C1 5.92487 5.92487 1 12 1C18.0751 1 23 5.92487 23 12Z" fill="#0F0F0F"/>
<path d="M13 11.8812L13.8426 12.3677C13.2847 12.7802 12.7902 13.2737 12.3766 13.8307L11.5174 13.3346C11.3437 13.2343 11.2115 13.0898 11.1267 12.9235C11 12.7274 11 12.4667 11 12.4667V6C11 5.44771 11.4477 5 12 5C12.5523 5 13 5.44772 13 6V11.8812Z" fill="#0F0F0F"/>
<path d="M15.2929 17.7071C15.6834 17.3166 16.3166 17.3166 16.7071 17.7071L17.3482 18.3482L19.2473 16.4491C19.6379 16.0586 20.271 16.0586 20.6615 16.4491C21.0521 16.8397 21.0521 17.4728 20.6615 17.8634L18.1213 20.4036C18.0349 20.49 17.9367 20.5573 17.8318 20.6054C17.4488 20.8294 16.9487 20.7772 16.6203 20.4487L15.2929 19.1213C14.9024 18.7308 14.9024 18.0976 15.2929 17.7071Z" fill="#0F0F0F"/>
<path fill-rule="evenodd" clip-rule="evenodd" d="M18 24C21.3137 24 24 21.3137 24 18C24 14.6863 21.3137 12 18 12C14.6863 12 12 14.6863 12 18C12 21.3137 14.6863 24 18 24ZM18 22.0181C15.7809 22.0181 13.9819 20.2191 13.9819 18C13.9819 15.7809 15.7809 13.9819 18 13.9819C20.2191 13.9819 22.0181 15.7809 22.0181 18C22.0181 20.2191 20.2191 22.0181 18 22.0181Z" fill="#0F0F0F"/>
</svg>

<svg xmlns="http://www.w3.org/2000/svg" width="40px" height="40px" fill="none" viewBox="0 0 24 24">
  <path fill="#0F0F0F" d="M23 12c0 .354-.017.705-.05 1.051a7.014 7.014 0 0 0-1.963-1.383 8.993 8.993 0 1 0-9.32 9.32 7.014 7.014 0 0 0 1.384 1.962c-.346.033-.697.05-1.051.05-6.075 0-11-4.925-11-11S5.925 1 12 1s11 4.925 11 11Z"/>
  <path fill="#0F0F0F" d="m13 11.881.843.487a7.04 7.04 0 0 0-1.466 1.463l-.86-.496a.996.996 0 0 1-.39-.412C11 12.728 11 12.468 11 12.468V6a1 1 0 1 1 2 0v5.881ZM15.293 17.707a1 1 0 0 1 1.414 0l.641.641 1.9-1.899a1 1 0 0 1 1.413 1.414l-2.54 2.54a.996.996 0 0 1-.29.202 1 1 0 0 1-1.21-.156l-1.328-1.328a1 1 0 0 1 0-1.414Z"/>
  <path fill="#0F0F0F" fill-rule="evenodd" d="M18 24a6 6 0 1 0 0-12 6 6 0 0 0 0 12Zm0-1.982a4.018 4.018 0 1 1 0-8.036 4.018 4.018 0 0 1 0 8.036Z" clip-rule="evenodd"/>
</svg>
